flaticon/seo-and-analytics/networking.svg

<svg xmlns="http://www.w3.org/2000/svg" width="32" height="32" viewBox="0 0 24 24">
    <path d="M22.398438 5.199219L22.398438 2.398438C22.398438 1.960938 22.039062 1.601562 21.601562 1.601562L16.398438 1.601562C15.960938 1.601562 15.601562 1.960938 15.601562 2.398438L15.601562 5.199219C15.601562 5.640625 15.960938 6 16.398438 6L21.601562 6C22.039062 6 22.398438 5.640625 22.398438 5.199219zM21.601562 5.199219L16.398438 5.199219 16.398438 2.398438 21.601562 2.398438zM8.398438 5.199219L8.398438 2.398438C8.398438 1.960938 8.039062 1.601562 7.601562 1.601562L2.398438 1.601562C1.960938 1.601562 1.601562 1.960938 1.601562 2.398438L1.601562 5.199219C1.601562 5.640625 1.960938 6 2.398438 6L7.601562 6C8.039062 6 8.398438 5.640625 8.398438 5.199219zM2.398438 2.398438L7.601562 2.398438 7.601562 5.199219 2.398438 5.199219zM8.800781 17.199219L8.800781 20C8.800781 20.441406 9.160156 20.800781 9.601562 20.800781L14.800781 20.800781C15.238281 20.800781 15.601562 20.441406 15.601562 20L15.601562 17.199219C15.601562 16.761719 15.238281 16.398438 14.800781 16.398438L9.601562 16.398438C9.160156 16.398438 8.800781 16.761719 8.800781 17.199219zM14.800781 20L9.601562 20 9.601562 17.199219 14.800781 17.199219zM14.800781 20"/>
    <path d="M 21.078125 9.199219 C 21.601562 9.199219 22 8.800781 22 8.28125 L 22 7.601562 L 22.960938 7.601562 C 23.519531 7.601562 24 7.121094 24 6.558594 L 24 1.039062 C 24 0.480469 23.519531 0 22.960938 0 L 15.039062 0 C 14.480469 0 14 0.480469 14 1.039062 L 14 6.558594 C 14 7.121094 14.480469 7.601562 15.039062 7.601562 L 16.398438 7.601562 L 16.398438 8.28125 C 16.398438 8.800781 16.800781 9.199219 17.28125 9.199219 L 18.800781 9.199219 L 18.800781 10.449219 C 18.238281 10.597656 17.796875 11.039062 17.652344 11.601562 L 13.550781 11.601562 C 13.371094 10.910156 12.742188 10.398438 12 10.398438 C 11.257812 10.398438 10.628906 10.910156 10.449219 11.601562 L 6.347656 11.601562 C 6.203125 11.039062 5.761719 10.597656 5.199219 10.449219 L 5.199219 9.199219 L 6.679688 9.199219 C 7.199219 9.199219 7.601562 8.800781 7.601562 8.28125 L 7.601562 7.601562 L 8.960938 7.601562 C 9.519531 7.601562 10 7.121094 10 6.558594 L 10 1.039062 C 10 0.480469 9.519531 0 8.960938 0 L 1.039062 0 C 0.480469 0 0 0.480469 0 1.039062 L 0 6.558594 C 0 7.121094 0.480469 7.601562 1.039062 7.601562 L 2 7.601562 L 2 8.28125 C 2 8.800781 2.398438 9.199219 2.921875 9.199219 L 4.398438 9.199219 L 4.398438 10.449219 C 3.839844 10.597656 3.398438 11.039062 3.25 11.601562 L 0.398438 11.601562 C 0.160156 11.601562 0 11.761719 0 12 C 0 12.238281 0.160156 12.398438 0.398438 12.398438 L 3.25 12.398438 C 3.429688 13.089844 4.058594 13.601562 4.800781 13.601562 C 5.542969 13.601562 6.171875 13.089844 6.347656 12.398438 L 10.449219 12.398438 C 10.597656 12.960938 11.039062 13.402344 11.601562 13.550781 L 11.601562 14.800781 L 8.238281 14.800781 C 7.679688 14.800781 7.199219 15.28125 7.199219 15.839844 L 7.199219 21.359375 C 7.199219 21.921875 7.679688 22.398438 8.238281 22.398438 L 9.199219 22.398438 L 9.199219 23.078125 C 9.199219 23.601562 9.601562 24 10.078125 24 L 13.878906 24 C 14.398438 24 14.800781 23.601562 14.800781 23.078125 L 14.800781 22.398438 L 16.160156 22.398438 C 16.71875 22.398438 17.199219 21.921875 17.199219 21.359375 L 17.199219 15.839844 C 17.199219 15.28125 16.71875 14.800781 16.160156 14.800781 L 12.398438 14.800781 L 12.398438 13.550781 C 12.960938 13.402344 13.402344 12.960938 13.550781 12.398438 L 17.652344 12.398438 C 17.828125 13.089844 18.457031 13.601562 19.199219 13.601562 C 19.941406 13.601562 20.570312 13.089844 20.75 12.398438 L 23.601562 12.398438 C 23.839844 12.398438 24 12.238281 24 12 C 24 11.761719 23.839844 11.601562 23.601562 11.601562 L 20.75 11.601562 C 20.605469 11.039062 20.160156 10.597656 19.601562 10.449219 L 19.601562 9.199219 Z M 1.039062 6.800781 C 0.921875 6.800781 0.800781 6.679688 0.800781 6.558594 L 0.800781 1.039062 C 0.800781 0.921875 0.921875 0.800781 1.039062 0.800781 L 8.960938 0.800781 C 9.078125 0.800781 9.199219 0.921875 9.199219 1.039062 L 9.199219 6.558594 C 9.199219 6.679688 9.078125 6.800781 8.960938 6.800781 Z M 2.800781 8.28125 L 2.800781 7.601562 L 6.839844 7.601562 L 6.839844 8.28125 C 6.839844 8.359375 6.761719 8.398438 6.71875 8.398438 L 2.921875 8.398438 C 2.839844 8.398438 2.800781 8.359375 2.800781 8.28125 Z M 14.039062 23.078125 C 14.039062 23.160156 13.960938 23.199219 13.921875 23.199219 L 10.121094 23.199219 C 10.039062 23.199219 10 23.121094 10 23.078125 L 10 22.398438 L 14.039062 22.398438 Z M 16.398438 15.839844 L 16.398438 21.359375 C 16.398438 21.480469 16.28125 21.601562 16.160156 21.601562 L 8.238281 21.601562 C 8.121094 21.601562 8 21.480469 8 21.359375 L 8 15.839844 C 8 15.71875 8.121094 15.601562 8.238281 15.601562 L 16.160156 15.601562 C 16.28125 15.601562 16.398438 15.71875 16.398438 15.839844 Z M 4.800781 12.800781 C 4.359375 12.800781 4 12.441406 4 12 C 4 11.558594 4.359375 11.199219 4.800781 11.199219 C 5.238281 11.199219 5.601562 11.558594 5.601562 12 C 5.601562 12.441406 5.238281 12.800781 4.800781 12.800781 Z M 12 12.800781 C 11.558594 12.800781 11.199219 12.441406 11.199219 12 C 11.199219 11.558594 11.558594 11.199219 12 11.199219 C 12.441406 11.199219 12.800781 11.558594 12.800781 12 C 12.800781 12.441406 12.441406 12.800781 12 12.800781 Z M 20 12 C 20 12.441406 19.640625 12.800781 19.199219 12.800781 C 18.761719 12.800781 18.398438 12.441406 18.398438 12 C 18.398438 11.558594 18.761719 11.199219 19.199219 11.199219 C 19.640625 11.199219 20 11.558594 20 12 Z M 15.039062 6.800781 C 14.921875 6.800781 14.800781 6.679688 14.800781 6.558594 L 14.800781 1.039062 C 14.800781 0.921875 14.921875 0.800781 15.039062 0.800781 L 22.960938 0.800781 C 23.078125 0.800781 23.199219 0.921875 23.199219 1.039062 L 23.199219 6.558594 C 23.199219 6.679688 23.078125 6.800781 22.960938 6.800781 Z M 17.199219 8.28125 L 17.199219 7.601562 L 21.238281 7.601562 L 21.238281 8.28125 C 21.238281 8.359375 21.160156 8.398438 21.121094 8.398438 L 17.320312 8.398438 C 17.238281 8.398438 17.199219 8.320312 17.199219 8.28125 Z M 17.199219 8.28125"/>
</svg>

<svg xmlns="http://www.w3.org/2000/svg" width="32" height="32" viewBox="0 0 24 24">
    <path d="M22.398 5.2V2.397a.8.8 0 0 0-.796-.796h-5.204a.8.8 0 0 0-.796.796V5.2c0 .442.359.801.796.801h5.204c.437 0 .796-.36.796-.8zm-.796 0h-5.204V2.397h5.204zm0 0M8.398 5.2V2.397a.8.8 0 0 0-.796-.796H2.398a.8.8 0 0 0-.796.796V5.2c0 .442.359.801.796.801h5.204c.437 0 .796-.36.796-.8zm-6-2.802h5.204V5.2H2.398zm0 0M8.8 17.2V20c0 .441.36.8.802.8H14.8c.437 0 .8-.359.8-.8v-2.8c0-.438-.363-.802-.8-.802H9.6c-.44 0-.8.364-.8.801zm6 2.8H9.603v-2.8H14.8zm0 0"/>
    <path d="M21.078 9.2A.903.903 0 0 0 22 8.28v-.68h.96c.56 0 1.04-.48 1.04-1.042v-5.52C24 .48 23.52 0 22.96 0h-7.92C14.48 0 14 .48 14 1.04v5.519c0 .562.48 1.043 1.04 1.043h1.358v.68c0 .519.403.917.883.917h1.52v1.25a1.61 1.61 0 0 0-1.149 1.153h-4.101A1.608 1.608 0 0 0 12 10.398c-.742 0-1.371.512-1.55 1.204H6.347a1.61 1.61 0 0 0-1.149-1.153V9.2h1.48c.52 0 .923-.398.923-.918v-.68H8.96C9.52 7.602 10 7.122 10 6.56v-5.52C10 .48 9.52 0 8.96 0H1.04C.48 0 0 .48 0 1.04v5.519c0 .562.48 1.043 1.04 1.043H2v.68c0 .519.398.917.922.917h1.476v1.25c-.558.149-1 .59-1.148 1.153H.398c-.238 0-.398.16-.398.398 0 .238.16.398.398.398H3.25c.18.692.809 1.204 1.55 1.204a1.6 1.6 0 0 0 1.548-1.204h4.101c.149.563.59 1.004 1.153 1.153v1.25H8.238c-.558 0-1.039.48-1.039 1.039v5.52c0 .562.48 1.038 1.04 1.038h.96v.68c0 .524.403.922.88.922h3.8c.52 0 .922-.398.922-.922v-.68h1.36c.558 0 1.038-.476 1.038-1.039v-5.52c0-.558-.48-1.038-1.039-1.038h-3.762v-1.25a1.622 1.622 0 0 0 1.153-1.153h4.101a1.6 1.6 0 0 0 1.547 1.204c.742 0 1.371-.512 1.551-1.204h2.852c.238 0 .398-.16.398-.398 0-.238-.16-.398-.398-.398H20.75a1.616 1.616 0 0 0-1.148-1.153V9.2zM1.04 6.8c-.117 0-.238-.12-.238-.241v-5.52c0-.117.12-.238.238-.238h7.922c.117 0 .238.12.238.238v5.52c0 .12-.12.242-.238.242zm1.762 1.481v-.68H6.84v.68c0 .078-.078.117-.121.117H2.922c-.082 0-.121-.039-.121-.117zm11.238 14.797c0 .082-.078.121-.117.121h-3.8c-.083 0-.122-.078-.122-.12v-.68h4.04zm2.36-7.238v5.52c0 .12-.118.242-.239.242H8.238c-.117 0-.238-.122-.238-.243v-5.52c0-.12.121-.237.238-.237h7.922c.121 0 .238.117.238.238zM4.8 12.8a.802.802 0 0 1 0-1.6c.437 0 .8.359.8.8 0 .441-.363.8-.8.8zm7.199 0a.802.802 0 0 1 0-1.6.802.802 0 0 1 0 1.6zm8-.8c0 .441-.36.8-.8.8-.438 0-.802-.359-.802-.8A.802.802 0 0 1 20 12zm-4.96-5.2c-.118 0-.24-.12-.24-.241v-5.52c0-.117.122-.238.24-.238h7.92c.118 0 .24.12.24.238v5.52c0 .12-.122.242-.24.242zm2.16 1.481v-.68h4.038v.68c0 .078-.078.117-.117.117h-3.8c-.083 0-.122-.078-.122-.117zm0 0"/>
</svg>
